X:100
T:Mrs MaCloud of Rase on B. JGi.100
O:Tealby,Lincolnshire
M:C|
L:1/8
N: Version of Miss McLeod’s Reel.No key signature visible in MS
Q:1/4=130
S:Joshua Gibbons MS,1823,Tealby,Lincs.
R:reel
Z:VMP/R.Greig, 2009
K:A
{B}A2a2f>ef>a|c2c>Bc2c>B|A2a2{g}f>ef>a|B2B>cB2B>c|
A2a2{g}f>ef>a|c2c>Bc2c>e|f>ef>g a>ga>d|B2B>cB2:|
c2|A2c>de2c2|c>Bc>dc2c>B|A2c>de2c2|B2B>cB2c2|
B2c>de2c2|c>Bc>ec3e|f>ef>g a>ga>c|B2B>cB2||

